X: 2
T: Silver March, The
Z: Dr. Dow
S: https://thesession.org/tunes/10953#setting20533
R: reel
M: 4/4
L: 1/8
K: Dmaj
fg|a2fd A2df|aggf g2ef|g2ec ABce|baa^g a2fg|a2fd A2df|aggf g2ef|g2ec ABce|d2dc d2:||:B2|AfAf Aff>g|feef e2EF|GeGe Gee>f|edde d2B2|AfAf Affg|a2gf B2ce|fecB ABce|d2dc d2:|
